public/library/beefy-icon-dark.svg

<svg width="46" height="47" viewBox="0 0 46 47" fill="none" xmlns="http://www.w3.org/2000/svg">
<circle cx="23" cy="23" r="23" fill="black"/>
<path d="M22.9999 2.45853C25.7749 2.45853 28.4653 3.00244 30.9965 4.07578C32.2125 4.59069 33.3877 5.2289 34.4855 5.97346C35.5737 6.71077 36.5968 7.55687 37.5281 8.48758C38.4595 9.42071 39.3041 10.4457 40.0376 11.536C40.7784 12.6359 41.4179 13.8132 41.9318 15.0316C43.0031 17.5675 43.546 20.2629 43.546 23.0429C43.546 25.823 43.0031 28.5184 41.9318 31.0543C41.4179 32.2727 40.7808 33.4499 40.0376 34.5498C39.3017 35.6401 38.4572 36.6651 37.5281 37.5982C36.5968 38.5313 35.5737 39.3775 34.4855 40.1123C33.3877 40.8569 32.2125 41.4952 30.9965 42.0101C28.4653 43.0834 25.7749 43.6273 22.9999 43.6273C20.2251 43.6273 17.5347 43.0834 15.0035 42.0101C13.7875 41.4952 12.6123 40.8569 11.5145 40.1123C10.4262 39.375 9.40316 38.529 8.47178 37.5982C7.54038 36.6651 6.69586 35.6401 5.96234 34.5498C5.22156 33.4499 4.58214 32.2727 4.06819 31.0543C2.99685 28.5184 2.45394 25.823 2.45394 23.0429C2.45394 20.2629 2.99685 17.5675 4.06819 15.0316C4.58214 13.8132 5.21916 12.6359 5.96234 11.536C6.69827 10.4457 7.5428 9.42071 8.47178 8.48758C9.40316 7.55446 10.4262 6.70836 11.5145 5.97346C12.6123 5.2289 13.7875 4.59069 15.0035 4.07578C17.5347 3.00244 20.2251 2.45853 22.9999 2.45853ZM22.9999 0C10.2959 0 0 10.3152 0 23.0429C0 35.7707 10.2959 46.0859 22.9999 46.0859C35.704 46.0859 46 35.7707 46 23.0429C46 10.3152 35.7016 0 22.9999 0Z" fill="white"/>
<path d="M16.0196 14.2108V12.5114C16.0196 11.1383 16.9172 10.019 18.2685 9.7821C19.2891 9.60079 20.235 9.79177 20.9854 10.575C21.4777 11.0875 21.7334 11.7088 21.7431 12.4195C21.7527 13.0094 21.7431 13.6017 21.7431 14.2011H24.8461C24.8461 14.1649 24.8509 14.1263 24.8509 14.0851V12.4726C24.8557 10.9473 26.0598 9.74101 27.5823 9.7265C28.1083 9.72166 28.6175 9.77244 29.0855 10.0263C30.0459 10.5484 30.5478 11.3607 30.5744 12.4533C30.5889 13.0311 30.5768 13.6089 30.5768 14.206H34.6088C35.3617 14.206 35.8611 14.7089 35.9287 15.4606C35.9866 16.1036 35.8225 16.6911 35.6101 17.2785C35.3906 17.8877 35.0769 18.4582 34.6764 18.966C34.3602 19.3671 34.0056 19.7419 33.6411 20.1021C33.1683 20.5662 32.6712 21.0063 32.1765 21.4511C31.9063 21.6927 31.665 21.9562 31.5105 22.2875C31.4671 22.3817 31.4285 22.493 31.4285 22.5945C31.4238 25.0699 31.4333 27.5453 31.4213 30.0208C31.4068 32.9966 29.211 35.6486 26.2962 36.2142C25.8451 36.2988 25.389 36.3448 24.9306 36.3472C23.6492 36.3641 22.368 36.3545 21.0868 36.352C17.9596 36.352 15.3391 34.215 14.7262 31.1473C14.6467 30.7219 14.6057 30.2916 14.6081 29.8588C14.5959 27.4462 14.6032 25.0336 14.6009 22.6235C14.6009 22.5485 14.5839 22.4736 14.5525 22.406C14.3571 21.9514 14.0121 21.6179 13.6525 21.2914C13.1676 20.8515 12.6873 20.4067 12.212 19.9571C11.657 19.4325 11.1624 18.8571 10.8005 18.1802C10.3951 17.4211 10.05 16.6331 10.05 15.7458C10.05 15.5453 10.0718 15.347 10.1152 15.1512C10.2503 14.5879 10.7498 14.2084 11.3313 14.206H16.0148L16.0196 14.2108ZM20.4763 16.9425H15.5443C15.2281 16.9425 14.9555 17.1553 14.9145 17.4671C14.888 17.646 14.8903 17.8297 14.9217 18.0086C15.0303 18.5622 15.2716 19.0626 15.6553 19.4736C16.0389 19.8845 16.4588 20.2495 16.8472 20.6485C17.1416 20.9482 17.3298 21.3059 17.3298 21.7484C17.3274 24.4511 17.3274 27.1537 17.3298 29.8564C17.3298 30.0474 17.3395 30.2384 17.366 30.4269C17.6387 32.2835 19.1926 33.6227 21.065 33.6227H24.9233C25.114 33.6227 25.3046 33.6131 25.4951 33.5889C27.3315 33.3351 28.6996 31.7661 28.7019 29.9096C28.7019 29.46 28.6971 29.0079 28.7044 28.5582C28.7044 28.4543 28.6754 28.4108 28.5741 28.3794C27.6257 28.0893 26.7186 27.6758 25.8764 27.1513C23.9413 25.9475 22.4573 24.3326 21.497 22.2512C21.036 21.2528 20.72 20.2109 20.609 19.1158C20.5366 18.3978 20.5221 17.675 20.4787 16.9377L20.4763 16.9425ZM28.5114 24.19C28.5185 23.5131 27.978 22.9595 27.3049 22.9498C26.6292 22.9426 26.0767 23.4841 26.0671 24.161C26.0598 24.8378 26.6003 25.3914 27.2734 25.4011H27.2759C27.9491 25.4107 28.5017 24.8717 28.5089 24.1972V24.19H28.5114Z" fill="white"/>
<path d="M20.9585 24.1797C20.956 24.8567 20.4059 25.403 19.7327 25.4005C19.0571 25.3981 18.5118 24.847 18.5142 24.1701C18.5166 23.4932 19.0667 22.9469 19.7424 22.9492H19.7472C20.4204 22.9492 20.9633 23.5005 20.9609 24.1724V24.1773L20.9585 24.1797Z" fill="white"/>
</svg>

<svg xmlns="http://www.w3.org/2000/svg" width="46" height="47" fill="none" viewBox="0 0 46 47"><circle cx="23" cy="23" r="23" fill="#000"/><path fill="#fff" d="M23 2.459a20.412 20.412 0 0 1 11.486 3.515 20.614 20.614 0 0 1 7.446 9.058 20.5 20.5 0 0 1 1.614 8.01 20.47 20.47 0 0 1-3.508 11.508 20.588 20.588 0 0 1-9.041 7.46A20.4 20.4 0 0 1 23 43.627a20.409 20.409 0 0 1-11.485-3.515 20.613 20.613 0 0 1-7.446-9.058 20.5 20.5 0 0 1-1.615-8.011 20.47 20.47 0 0 1 3.508-11.507 20.593 20.593 0 0 1 9.041-7.46A20.4 20.4 0 0 1 23 2.459M23 0C10.296 0 0 10.315 0 23.043s10.296 23.043 23 23.043S46 35.77 46 23.043 35.702 0 23 0"/><path fill="#fff" d="M16.02 14.21v-1.699c0-1.373.897-2.492 2.249-2.729 1.02-.181 1.966.01 2.716.793.493.513.748 1.134.758 1.845.01.59 0 1.182 0 1.781h3.103c0-.036.005-.075.005-.116v-1.612a2.737 2.737 0 0 1 2.731-2.747c.526-.004 1.035.046 1.503.3.96.522 1.463 1.335 1.49 2.427.014.578.002 1.156.002 1.753h4.032c.753 0 1.252.503 1.32 1.255.058.643-.107 1.23-.319 1.818-.22.609-.533 1.18-.934 1.687-.316.401-.67.776-1.035 1.136-.473.464-.97.904-1.465 1.35-.27.24-.511.504-.666.835a.8.8 0 0 0-.082.308c-.004 2.475.005 4.95-.007 7.426-.014 2.976-2.21 5.628-5.125 6.193a7.6 7.6 0 0 1-1.365.133c-1.282.017-2.563.008-3.844.005-3.127 0-5.748-2.137-6.36-5.205a7 7 0 0 1-.119-1.288c-.012-2.413-.005-4.825-.007-7.236a.5.5 0 0 0-.049-.217c-.195-.455-.54-.788-.9-1.115q-.727-.66-1.44-1.334c-.555-.524-1.05-1.1-1.412-1.777-.405-.759-.75-1.547-.75-2.434q0-.3.065-.595a1.24 1.24 0 0 1 1.216-.945h4.684zm4.456 2.732h-4.932c-.316 0-.588.213-.63.525a1.7 1.7 0 0 0 .008.542c.108.553.35 1.054.733 1.465.384.41.804.776 1.192 1.174.295.3.483.658.483 1.1q-.005 4.055 0 8.108-.002.287.036.57a3.71 3.71 0 0 0 3.699 3.197h3.858q.287.001.572-.034a3.72 3.72 0 0 0 3.207-3.68c0-.449-.005-.901.002-1.35 0-.105-.029-.148-.13-.18a11.4 11.4 0 0 1-2.698-1.228c-1.935-1.203-3.419-2.818-4.379-4.9-.461-.998-.777-2.04-.888-3.135-.072-.718-.087-1.441-.13-2.178zm8.035 7.248a1.226 1.226 0 0 0-1.206-1.24 1.226 1.226 0 0 0-.032 2.451h.003c.673.01 1.226-.53 1.233-1.204v-.007z"/><path fill="#fff" d="M20.959 24.18a1.224 1.224 0 0 1-1.226 1.22 1.224 1.224 0 0 1-1.219-1.23 1.225 1.225 0 0 1 1.228-1.22h.005c.673 0 1.216.55 1.214 1.222v.005z"/></svg>
